icons/svg/16x16/folder open/outline.svg

<svg width="16" height="16" fill="none" xmlns="http://www.w3.org/2000/svg">
  <path fill-rule="evenodd" clip-rule="evenodd" d="M11.36 12.232C10.93 12.59 10.046 13 7 13c-2.14 0-3.425-.212-4.454-.517l2.692-4.038A.996.996 0 016.07 8H14c-.03.665-1.544 3.318-2.64 4.232zM14 6H6.07a2.992 2.992 0 00-2.496 1.336L2 9.697V3h1.763c.382 0 .725.211.895.552l.447.895A1 1 0 006 5h6a.36.36 0 01.101.01l-.02-.01h1.92c0-1.197-.805-2-2-2H6.617l-.17-.342A2.984 2.984 0 003.762 1H1a1 1 0 00-1 1v11a1 1 0 00.634.93C2.358 14.608 3.952 15 7 15c2.957 0 4.591-.358 5.64-1.232C13.997 12.636 16 9.404 16 8c0-1.234-.767-2-2-2z" fill="#000"/>
</svg>

<svg xmlns="http://www.w3.org/2000/svg" width="16" height="16" viewBox="0 0 16 16">
  <path fill-rule="evenodd" d="M11.359,12.232 C10.93,12.589 10.047,13 7,13 C4.635,13 3.493,12.79 2.535,12.5 L5.238,8.445 C5.423,8.166 5.735,8 6.07,8 L14,8 C13.969,8.665 12.456,11.318 11.359,12.232 M14,6 L6.07,6 C5.065,6 4.131,6.499 3.574,7.336 L2,9.697 L2,3 L3.763,3 C4.145,3 4.488,3.211 4.658,3.552 L5.381,5 L11,5 C11.071,5 11.101,5.009 11.101,5.009 C11.095,5.007 11.088,5.003 11.081,5 L13,5 C13,3.803 12.196,3 11,3 L6.618,3 L6.447,2.658 C5.935,1.635 4.907,1 3.763,1 L2,1 C0.897,1 0,1.897 0,3 L0,12.326 C0,13.171 0.532,13.925 1.324,14.201 C2.582,14.638 3.878,15 7,15 C9.957,15 11.591,14.642 12.64,13.768 C13.997,12.636 16,9.404 16,8 C16,6.766 15.233,6 14,6"/>
</svg>
